public/instagram.svg

<svg xmlns="http://www.w3.org/2000/svg" xml:space="preserve" viewBox="0 0 800 800"><linearGradient id="a" x1="582.473" x2="209.69" y1="565.309" y2="227.592" gradientUnits="userSpaceOnUse"><stop offset="0" style="stop-color:#fec053"/><stop offset=".327" style="stop-color:#f2203e"/><stop offset=".648" style="stop-color:#b729a8"/><stop offset="1" style="stop-color:#5342d6"/></linearGradient><path d="M218.459 127.608h363.085c49.938 0 90.848 40.904 90.848 90.848v363.088c0 49.942-40.909 90.848-90.848 90.848H218.459c-49.947 0-90.851-40.906-90.851-90.848V218.456c0-49.944 40.904-90.848 90.851-90.848" style="fill-rule:evenodd;clip-rule:evenodd;fill:url(#a)"/><path d="M526.769 400.003c0-70.027-56.743-126.77-126.769-126.77s-126.767 56.743-126.767 126.77c0 70.023 56.74 126.767 126.767 126.767 70.026-.001 126.769-56.744 126.769-126.767m-2.4-143.998c-11.316 0-20.399 9.172-20.399 20.399a20.34 20.34 0 0 0 20.399 20.402c11.229 0 20.398-9.086 20.398-20.402.001-11.227-9.168-20.399-20.398-20.399m-227.993-29.312h207.25c38.401 0 69.684 31.37 69.684 69.681v207.249c0 38.401-31.282 69.69-69.684 69.69h-207.25c-38.314 0-69.686-31.288-69.686-69.69V296.374c0-38.311 31.373-69.681 69.686-69.681m207.25-23.23h-207.25c-51.087 0-92.913 41.826-92.913 92.91v207.249c0 51.174 41.826 92.916 92.913 92.916h207.25c51.171 0 92.91-41.742 92.91-92.916V296.374c0-51.085-41.739-92.911-92.91-92.911m-204.081 196.54c0-55.459 44.999-100.458 100.455-100.458s100.455 44.999 100.455 100.458c0 55.456-44.999 100.449-100.455 100.449s-100.455-44.993-100.455-100.449" style="fill-rule:evenodd;clip-rule:evenodd;fill:#fff"/></svg>

<?xml version="1.0" encoding="utf-8"?>
<!-- Generator: Adobe Illustrator 27.5.0, SVG Export Plug-In . SVG Version: 6.00 Build 0)  -->
<svg version="1.1" xmlns="http://www.w3.org/2000/svg" xmlns:xlink="http://www.w3.org/1999/xlink" x="0px" y="0px"
	 viewBox="0 0 800 800" style="enable-background:new 0 0 800 800;" xml:space="preserve">
<g id="_x31_3">
	<g>
		<g>
			<linearGradient id="SVGID_1_" gradientUnits="userSpaceOnUse" x1="582.4734" y1="565.3093" x2="209.6897" y2="227.5917">
				<stop  offset="0" style="stop-color:#FEC053"/>
				<stop  offset="0.3273" style="stop-color:#F2203E"/>
				<stop  offset="0.6485" style="stop-color:#B729A8"/>
				<stop  offset="1" style="stop-color:#5342D6"/>
			</linearGradient>
			<path style="fill-rule:evenodd;clip-rule:evenodd;fill:url(#SVGID_1_);" d="M218.459,127.608h363.085
				c49.938,0,90.848,40.904,90.848,90.848v363.088c0,49.942-40.909,90.848-90.848,90.848H218.459
				c-49.947,0-90.851-40.906-90.851-90.848V218.456C127.608,168.512,168.512,127.608,218.459,127.608L218.459,127.608z"/>
		</g>
		<g>
			<path style="fill-rule:evenodd;clip-rule:evenodd;fill:#FFFFFF;" d="M526.769,400.003c0-70.027-56.743-126.77-126.769-126.77
				c-70.027,0-126.767,56.743-126.767,126.77c0,70.023,56.74,126.767,126.767,126.767
				C470.026,526.769,526.769,470.026,526.769,400.003L526.769,400.003z M524.369,256.005c-11.316,0-20.399,9.172-20.399,20.399
				c0,11.316,9.083,20.402,20.399,20.402c11.229,0,20.398-9.086,20.398-20.402C544.768,265.177,535.599,256.005,524.369,256.005
				L524.369,256.005z M296.376,226.693h207.25c38.401,0,69.684,31.37,69.684,69.681v207.249c0,38.401-31.282,69.69-69.684,69.69
				h-207.25c-38.314,0-69.686-31.288-69.686-69.69V296.374C226.69,258.063,258.063,226.693,296.376,226.693L296.376,226.693z
				 M503.626,203.463h-207.25c-51.087,0-92.913,41.826-92.913,92.91v207.249c0,51.174,41.826,92.916,92.913,92.916h207.25
				c51.171,0,92.91-41.742,92.91-92.916V296.374C596.536,245.289,554.797,203.463,503.626,203.463L503.626,203.463z
				 M299.545,400.003c0-55.459,44.999-100.458,100.455-100.458s100.455,44.999,100.455,100.458
				c0,55.456-44.999,100.449-100.455,100.449S299.545,455.459,299.545,400.003L299.545,400.003z"/>
		</g>
	</g>
</g>
<g id="Layer_1">
</g>
</svg>
